X:1
T:Schoon lief
C:Trad.
O:Vlaanderen
Z:Bart Vanhaverbeke <bvanhaverbeke@unicall.be>
P:5x
L:1/8
M:3/4
K:Am
A | AE A3 B | Bc A3 c | cd/c/ B3 A | A2 B2 z B |
BB B3 B | cA ^G3 E | AB c3 B/A/ | ^G2 A2 z |]
